X: 207
T: The Seven Step
R: barndance
M: 4/4
L: 1/8
K: Gmaj
|:DE/F/|G2 G2 G2 G2|GABG E2 D2|B2 B2 B2 B2|BcdB A3 A|
BcdB G2 G2|GABG E2D2|DEGA BddB|A2 G2 G2 :|
|:A2|BcdB G2 G2|GABG E2 D2|DEGA BddB|B2 A2 A3 A|
BcdB G2 G2|GABG E2 D2|DEGA BddB|1 A2 G2 G2 :|2 A2 G2 G4 |]
